!! J.S. Bach "Sarabande" from Suite No. 5, for violoncello.
!! From 'Bach Sonatas', Augener's Edition, 1919; p.39
!! This file has been error-checked using the double-entry method.
!! NOTE: The repeats at bars 8 and at the end have been expanded in
!!       this encoding.
!! NOTE: The tuning of the 'cello is different than normal: CC, GG, D, G.
!! Percy Such (editor) gives the metronome marking as quarter-note equals 60.
**kern
*M3/4
=1
{8G
8E-
8BBn
8C}
4AA-
=2
{8c
8A-
8En
8F}
4BBn
=3
{8d
8A-
8En
8F}
{8GG
8G}
=4
{8F
8E-
8BBn
8C}
4CC
=5
{8C
8E-
8A-
8G}
{8d-
8c}
=6
{8D
8F
8B-
8A-}
{8c
8B-}
=7
{8A-
8G
8D
8E-}
{8BB-
8D}
=8
2.EE-
=9
{8G
8E-
8BBn
8C}
4AA-
=10
{8c
8A-
8En
8F}
4BBn
=11
{8d
8A-
8En
8F}
{8GG
8G}
=12
{8F
8E-
8BBn
8C}
4CC
=13
{8C
8E-
8A-
8G}
{8d-
8c}
=14
{8D
8F
8B-
8A-}
{8c
8B-}
=15
{8A-
8G
8D
8E-}
{8BB-
8D}
=16
2.EE-
=17
{8B-
8G
8D
8E-}
4DD-
=18
{8B-
8G
8En
8F}
4GG
=19
{8d-
8B-
8En
8F}
{8CC
8c}
=20
{8B-
8A-
8En
8F}
4FF
=21
{8EE-
8C
8F
8E-}
{8B-
8An}
=22
{8DD
8D
8G
8F}
{8c
8Bn}
=23
{8c
8A-
8F#
8G}
{8BBn
8C}
=24
{8GG
8D
8G
8F#}
{8c
8Bn}
=25
{8e-
8c
8F#
8G}
{8AAn
8e-}
=26
{8d
8A-
8En
8F}
{8BBn
8G}
=27
{8F
8E-
8BBn
8C}
{8GG
8Bn}
=28
{8CC
8GG
8F
8E-}
4c
=29
{8B-
8G
8D
8E-}
4DD-
=30
{8B-
8G
8En
8F}
4GG
=31
{8d-
8B-
8En
8F}
{8CC
8c}
=32
{8B-
8A-
8En
8F}
4FF
=33
{8EE-
8C
8F
8E-}
{8B-
8An}
=34
{8DD
8D
8G
8F}
{8c
8Bn}
=35
{8c
8A-
8F#
8G}
{8BBn
8C}
=36
{8GG
8D
8G
8F#}
{8c
8Bn}
=37
{8e-
8c
8F#
8G}
{8AAn
8e-}
=38
{8d
8A-
8En
8F}
{8BBn
8G}
=39
{8F
8E-
8BBn
8C}
{8GG
8Bn}
=40
{8CC
8GG
8F
8E-}
4c
==
*-
